X: 28576
T: Murphy's Hound
R: reel
M: 4/4
K: Dmajor
BAFE D2DE|FABc d2ed|BAFE D2DE|FABA FEE2|
BAFE D2DE|FABc d3e|fdec dcBA|BdAF FEE2||
Be~e2 fded|Beed BdAd|de~e2 fded|BdAF DEFA|
Be~e2 fded|Beec d3e|fddf edBA|FABc d2ed||

